X:460
T: EI DU MEIN LIEBER SCHIFFSMANN MEIN
N: F0867
O: Europa, Mitteleuropa, Deutschland
R: erzaehlendes Volks - Lied
M: 2/4
L: 1/8
K: E
 | B2AA | GBeG | B2A2 | G2E2
B2AA | GBeG | B2A2 | G2E2
E2GB | E2GB | c4 | B4
A2A2 | G2G2 | B4 | G4
E2GB | E2GB | A2ce | G2
Be | F2Ac | E2GB | B2g2 | e4
E2GB | E2GB | A2ce | G2
Be | F2Ac | E2GB | B2g2 | e4

